icon/pk/shorts.svg

<svg viewBox="0 0 48 48" fill="none" xmlns="http://www.w3.org/2000/svg" height="1em" width="1em">
  <path d="M37 6H11V16L4 33L19 42L24 36L29 42L44 33L37 16V6Z" fill="#2F88FF" stroke="black" stroke-width="4" stroke-linecap="round" stroke-linejoin="round"/>
  <path d="M11 14C9.89543 14 9 14.8954 9 16C9 17.1046 9.89543 18 11 18V14ZM37 18C38.1046 18 39 17.1046 39 16C39 14.8954 38.1046 14 37 14V18ZM11 18L37 18V14L11 14V18Z" fill="white"/>
  <path d="M37 14V16L38.75 20.25" stroke="black" stroke-width="4" stroke-linecap="round" stroke-linejoin="round"/>
  <path d="M11 14V16L9.25 20.25" stroke="black" stroke-width="4" stroke-linecap="round" stroke-linejoin="round"/>
</svg>

<svg width="48" height="48" fill="none" xmlns="http://www.w3.org/2000/svg"><path d="M37 6H11v10L4 33l15 9 5-6 5 6 15-9-7-17V6Z" fill="#2F88FF" stroke="#000" stroke-width="4" stroke-linecap="round" stroke-linejoin="round"/><path d="M11 14a2 2 0 1 0 0 4v-4Zm26 4a2 2 0 1 0 0-4v4Zm-26 0h26v-4H11v4Z" fill="#fff"/><path d="M37 14v2l1.75 4.25M11 14v2l-1.75 4.25" stroke="#000" stroke-width="4" stroke-linecap="round" stroke-linejoin="round"/></svg>
